blockchains/ethereum/assets/0x2AF5D2aD76741191D15Dfe7bF6aC92d4Bd912Ca3/logo.svg

<svg fill="none" height="250" viewBox="0 0 250 250" width="250" xmlns="http://www.w3.org/2000/svg" xmlns:xlink="http://www.w3.org/1999/xlink"><linearGradient id="a"><stop offset="0" stop-color="#f6e93d"/><stop offset=".13" stop-color="#f8e330"/><stop offset=".35" stop-color="#f7c730"/><stop offset=".64" stop-color="#f59c2e"/><stop offset=".98" stop-color="#eb5e2c"/><stop offset="1" stop-color="#eb5c2c"/></linearGradient><linearGradient id="b" gradientUnits="userSpaceOnUse" x1="77.2438" x2="77.2438" xlink:href="#a" y1="100.091" y2="191.44"/><linearGradient id="c" gradientUnits="userSpaceOnUse" x1="113.144" x2="113.144" xlink:href="#a" y1="153.264" y2="229.162"/><linearGradient id="d" gradientUnits="userSpaceOnUse" x1="155.458" x2="155.458" xlink:href="#a" y1="131.084" y2="215.88"/><linearGradient id="e" gradientUnits="userSpaceOnUse" x1="87.0135" x2="87.0135" xlink:href="#a" y1="37.6453" y2="103.633"/><linearGradient id="f" gradientUnits="userSpaceOnUse" x1="200.13" x2="200.13" xlink:href="#a" y1="60.0047" y2="160.262"/><linearGradient id="g" gradientUnits="userSpaceOnUse" x1="144.999" x2="144.999" xlink:href="#a" y1="20.8359" y2="123.999"/><linearGradient id="h" gradientUnits="userSpaceOnUse" x1="165.27" x2="165.27" xlink:href="#a" y1="99.9406" y2="124.027"/><linearGradient id="i" gradientUnits="userSpaceOnUse" x1="98.5343" x2="106.185" xlink:href="#a" y1="118.015" y2="96.9941"/><clipPath id="j"><path d="m0 0h250v250h-250z"/></clipPath><g clip-path="url(#j)"><path d="m125 250c69.036 0 125-55.964 125-125 0-69.0356-55.964-125-125-125-69.0356 0-125 55.9644-125 125 0 69.036 55.9644 125 125 125z" fill="#fff"/><path d="m82.6115 110.095h.0938l1.5939.562 1.5001.563 1.5939.469 1.5002.656 1.5939.563 1.5001.562 1.5939.563 1.5002.562 1.5001.563 1.5002.562 1.5939.563 1.5003.656 1.594.469 1.5.563 1.594.562 1.5.656 1.594.563 1.5.469 1.5.562 1.594.657 1.594.562v-2.438-.375-1.969-1.406-1.031-2.438-2.344-2.438-2.344-2.531-2.344-.282h-1.875-1.782-.187-1.969-1.5-.563-1.969-1.031-1.031-2.063-.563-1.4061-1.9689-.0938-.0938-1.8751-1.6877-.2813-2.0627-1.3126-3.5629-3.5628-.0938-2.0627l-1.5002.751-3.5628 1.875-3.6566 1.969-3.6566 1.781-3.4691 1.875-3.6567 1.969-3.6566 1.782-3.5628 1.969-3.6566 1.875-3.5629 1.781-3.5629 1.969-3.2815 1.688-.3751 53.724 3.6566 2.531 3.5629 2.532 3.5629 2.438 3.6566 2.625 3.5628 2.532 3.6566 2.531 1.5939 1.219 2.0628-2.625 3.4691-4.688.375-.469-.375-.281-3.4691-2.532-3.6567-2.531-3.6566-2.532-3.5628-2.531-3.6566-2.626-.9376-.562.2812-43.505.6564-.375 3.6566-1.781 3.5628-1.781 3.6566-1.782 3.6567-1.781 3.4691-1.876 3.6566-1.781 3.6566-1.688 3.5628-1.875z" fill="url(#b)"/><path d="m144.68 212.576-3 1.219-3.375 1.406-3.376 1.313-3.375 1.406-1.5.563-1.782-.844-3.375-1.781-3.375-1.594-3.282-1.782-3.375-1.687-3.376-1.594-3.375-1.782-3.375-1.687-3.376-1.688-3.3749-1.688-3.3754-1.781-3.1878-1.594-3.3753-1.688-.3751-.187v-43.879h-3.0002-3.3754-3.3753v49.879l3.3753 1.594 3.3754 1.688 3.3753 1.781 3.3753 1.594 3.1878 1.782 3.3754 1.687 3.3749 1.688 3.376 1.688 3.375 1.687 3.375 1.688 3.376 1.688 3.375 1.781 3.282 1.594 3.375 1.782 3.375 1.593 1.313.751 1.969-.938 3.375-1.219 3.376-1.406 3.375-1.407 3.281-1.312 3.376-1.313-3.376-8.438z" fill="url(#c)"/><path d="m204.592 151.627.188 20.627-.844.75-5.719 3.938-5.72 4.126-5.719 4.125-5.719 4.032-5.72 4.031-5.625 4.126-5.719 4.031-3.376 2.438-2.344-1.781-5.625-4.407-5.72-4.313-5.719-4.407-5.625-4.313-1.032-.75v-22.221l1.032-.937 5.625-6.001 5.719-5.907 5.72-6 5.625-5.907 5.532-5.813h-5.532-5.625-5.72-5.719-5.625-5.814-5.719-5.625-5.72-5.719-5.626-5.719l5.719 6 5.626 5.907 5.719 5.907 5.72 6.001 5.625 5.906.844.844v26.909l4.875 3.844 5.814 4.407 5.625 4.313 5.719 4.407 5.72 4.313 5.625 4.406 2.063 1.594 3.657-2.625 5.719-3.938 5.625-4.125 5.72-4.126 5.719-3.938 5.719-4.125 5.72-4.125 5.719-3.938 5.719-4.126 4.688-3.469.938-25.315-5.626-.187z" fill="url(#d)"/><path d="m48.6706 103.624h.6563l.0938-27.5655 3.6566-2.344 4.5942-2.719 4.5004-2.719 4.5005-2.8128 4.5004-2.719 4.5943-2.8128 4.4066-2.719 4.5943-2.719 4.5004-2.8128 4.5942-2.8128h.0938l4.3129 2.5315 4.5947 2.5315 4.5 2.6253 4.5 2.5315 4.501 2.5315 4.5 2.5315 4.501 2.6252 4.406 2.5316.188-.3751 4.5-8.1571-4.5-2.6252-4.594-2.5315-4.501-2.5315-4.5-2.5315-4.501-2.6253-4.5-2.5315-4.5-2.5315-4.5947-2.6252-4.4067-2.5316-.1875-.0937-4.4067 2.6253-4.5004 2.8127-4.5943 2.8128-4.4066 2.8128-4.5943 2.719-4.5004 2.719-4.5005 2.8128-4.5004 2.719-4.5942 2.8128-4.4067 2.719-4.5942 2.7191-4.313 2.719-.1875 32.9095h4.5005z" fill="url(#e)"/><path d="m224.938 78.4003-2.344-1.8752-2.344-1.8752-2.344-1.9689-2.344-1.8752-2.344-1.8752-2.437-1.8752-2.344-1.8752-2.344-1.8752-2.438-1.9689-1.781-1.3127-.657.7501-2.344 2.9066-2.344 3.0003-.656.75.656.6563 2.344 1.969 2.344 1.9689 2.438 1.969 2.438 1.9689 2.344 2.0627 2.344 1.969 2.437 1.9689 1.126.9376.093 44.3483-1.219.844-2.437 1.5-2.344 1.5-2.344 1.5-2.438 1.5-2.438 1.5-2.344 1.501-2.344 1.5-2.344 1.5-2.344 1.5-2.344 1.5-2.437 1.5-2.344 1.501-2.344 1.5-2.344 1.5-2.438 1.5-2.344 1.5 2.344 3.75 2.438 3.751.375.656 1.969-1.219 2.344-1.406 2.344-1.5 2.437-1.407 2.344-1.594 2.344-1.406 2.344-1.5 2.344-1.406 2.344-1.501 2.438-1.406 2.438-1.594 2.344-1.406 2.344-1.5 2.437-1.407 2.344-1.5 2.344-1.406 2.344-1.594 2.344-1.407 2.344-1.5z" fill="url(#f)"/><path d="m147.587 104.844v2.438 2.438 2.438 2.531 2.532 2.437 2.438 1.875l.75-.281 3.187-1.219 3.188-1.313 3.094-1.218 3.188-1.313 3.188-1.313 3.094-1.219 3.188-1.312 3.188-1.219 3.094-1.313 3.188-1.219 3.094-1.312v-2.438-.938-6.4689-48.1923l-3.563-2.2503-3.657-2.0627-3.656-2.0627-3.563-2.2502-3.657-2.0627-3.657-2.0627-3.562-2.1565-3.657-2.1564-3.563-2.1565-3.656-2.0627-3.657-2.1565-3.563-2.1564-3.563-2.0627-3.656-2.0628-1.969-1.1251-1.688.9376-3.657 1.969-3.656 1.8752-3.469 2.0627-3.657 1.9689-3.657 1.8752-3.656 2.0627 3.656 2.0627 3.657 2.0627 2.25 1.4064 1.407-.7501 3.469-1.8752 3.656-1.9689 3.657-1.8752 1.406-.7501 2.251 1.3127 3.656 2.0627 3.563 2.0627 3.563 2.1564 3.657 2.1565 3.656 2.0627 3.563 2.1565 3.657 2.1564 3.562 2.0628 3.657 2.0627 3.657 2.2502 3.563 2.0627 1.218.6563v42.7543h-.843-.375-1.688-1.875-.188-2.156-1.313-.75-2.063-.844-1.218-2.063-.281-1.782-1.875-.188-2.156-1.219-.844-1.594-.281" fill="url(#g)"/><path d="m147.587 123.971 35.441-14.251-35.441-9.845" fill="url(#h)"/><path d="m115.146 123.971v-23.721l-32.4409 9.657 32.4409 13.97" fill="url(#i)"/></g></svg>

<svg width="250" height="250" viewBox="0 0 250 250" fill="none" xmlns="http://www.w3.org/2000/svg">
<g clip-path="url(#clip0_46_11406)">
<path d="M125 250C194.036 250 250 194.036 250 125C250 55.9644 194.036 0 125 0C55.9644 0 0 55.9644 0 125C0 194.036 55.9644 250 125 250Z" fill="white"/>
<path d="M82.6115 110.095H82.7053L84.2992 110.657L85.7993 111.22L87.3932 111.689L88.8934 112.345L90.4873 112.908L91.9874 113.47L93.5813 114.033L95.0815 114.595L96.5816 115.158L98.0818 115.72L99.6757 116.283L101.176 116.939L102.77 117.408L104.27 117.971L105.864 118.533L107.364 119.189L108.958 119.752L110.458 120.221L111.958 120.783L113.552 121.44L115.146 122.002V119.564V119.189V117.22V115.814V114.783V112.345V110.001V107.563V105.219V102.688V100.344V100.062H113.271H111.489H111.302H109.333H107.833H107.27H105.301H104.27H103.239H101.176H100.613H99.2069H97.238H97.1442H97.0504H95.1753H93.4876H93.2063H91.1436H89.831H86.2681H82.7053H82.6115H80.5488L79.0486 100.813L75.4858 102.688L71.8292 104.657L68.1726 106.438L64.7035 108.313L61.0468 110.282L57.3902 112.064L53.8274 114.033L50.1708 115.908L46.6079 117.689L43.045 119.658L39.7635 121.346L39.3884 175.07L43.045 177.601L46.6079 180.133L50.1708 182.571L53.8274 185.196L57.3902 187.728L61.0468 190.259L62.6407 191.478L64.7035 188.853L68.1726 184.165L68.5476 183.696L68.1726 183.415L64.7035 180.883L61.0468 178.352L57.3902 175.82L53.8274 173.289L50.1708 170.663L49.2332 170.101L49.5144 126.596L50.1708 126.221L53.8274 124.44L57.3902 122.659L61.0468 120.877L64.7035 119.096L68.1726 117.22L71.8292 115.439L75.4858 113.751L79.0486 111.876L82.6115 110.095Z" fill="url(#paint0_linear_46_11406)"/>
<path d="M144.68 212.576L141.68 213.795L138.305 215.201L134.929 216.514L131.554 217.92L130.054 218.483L128.272 217.639L124.897 215.858L121.522 214.264L118.24 212.482L114.865 210.795L111.489 209.201L108.114 207.419L104.739 205.732L101.363 204.044L97.9881 202.356L94.6127 200.575L91.4249 198.981L88.0496 197.293L87.6745 197.106V153.227H84.6743H81.2989H77.9236V203.106L81.2989 204.7L84.6743 206.388L88.0496 208.169L91.4249 209.763L94.6127 211.545L97.9881 213.232L101.363 214.92L104.739 216.608L108.114 218.295L111.489 219.983L114.865 221.671L118.24 223.452L121.522 225.046L124.897 226.828L128.272 228.421L129.585 229.172L131.554 228.234L134.929 227.015L138.305 225.609L141.68 224.202L144.961 222.89L148.337 221.577L144.961 213.139L144.68 212.576Z" fill="url(#paint1_linear_46_11406)"/>
<path d="M204.592 151.627L204.78 172.254L203.936 173.004L198.217 176.942L192.497 181.068L186.778 185.193L181.059 189.225L175.339 193.256L169.714 197.382L163.995 201.413L160.619 203.851L158.275 202.07L152.65 197.663L146.93 193.35L141.211 188.943L135.586 184.63L134.554 183.88V161.659L135.586 160.722L141.211 154.721L146.93 148.814L152.65 142.814L158.275 136.907L163.807 131.094H158.275H152.65H146.93H141.211H135.586H129.772H124.053H118.428H112.708H106.989H101.363H95.644L101.363 137.094L106.989 143.001L112.708 148.908L118.428 154.909L124.053 160.815L124.897 161.659V188.568L129.772 192.412L135.586 196.819L141.211 201.132L146.93 205.539L152.65 209.852L158.275 214.258L160.338 215.852L163.995 213.227L169.714 209.289L175.339 205.164L181.059 201.038L186.778 197.1L192.497 192.975L198.217 188.85L203.936 184.912L209.655 180.786L214.343 177.317L215.281 152.002L209.655 151.815L204.592 151.627Z" fill="url(#paint2_linear_46_11406)"/>
<path d="M48.6706 103.624H49.3269L49.4207 76.0585L53.0773 73.7145L57.6715 70.9955L62.1719 68.2765L66.6724 65.4637L71.1728 62.7447L75.7671 59.9319L80.1737 57.2129L84.768 54.4939L89.2684 51.6811L93.8626 48.8683H93.9564L98.2693 51.3998L102.864 53.9313L107.364 56.5566L111.864 59.0881L116.365 61.6196L120.865 64.1511L125.366 66.7763L129.772 69.3079L129.96 68.9328L134.46 60.7757L129.96 58.1505L125.366 55.619L120.865 53.0875L116.365 50.556L111.864 47.9307L107.364 45.3992L102.864 42.8677L98.2693 40.2425L93.8626 37.7109L93.6751 37.6172L89.2684 40.2425L84.768 43.0552L80.1737 45.868L75.7671 48.6808L71.1728 51.3998L66.6724 54.1188L62.1719 56.9316L57.6715 59.6506L53.0773 62.4634L48.6706 65.1824L44.0764 67.9015L39.7634 70.6205L39.5759 103.53H44.0764L48.6706 103.624Z" fill="url(#paint3_linear_46_11406)"/>
<path d="M224.938 78.4003L222.594 76.5251L220.25 74.6499L217.906 72.681L215.562 70.8058L213.218 68.9306L210.781 67.0554L208.437 65.1802L206.093 63.305L203.655 61.3361L201.874 60.0234L201.217 60.7735L198.873 63.6801L196.529 66.6804L195.873 67.4304L196.529 68.0867L198.873 70.0557L201.217 72.0246L203.655 73.9936L206.093 75.9625L208.437 78.0252L210.781 79.9942L213.218 81.9631L214.344 82.9007L214.437 127.249L213.218 128.093L210.781 129.593L208.437 131.093L206.093 132.593L203.655 134.093L201.217 135.593L198.873 137.094L196.529 138.594L194.185 140.094L191.841 141.594L189.497 143.094L187.06 144.594L184.716 146.095L182.372 147.595L180.028 149.095L177.59 150.595L175.246 152.095L177.59 155.845L180.028 159.596L180.403 160.252L182.372 159.033L184.716 157.627L187.06 156.127L189.497 154.72L191.841 153.126L194.185 151.72L196.529 150.22L198.873 148.814L201.217 147.313L203.655 145.907L206.093 144.313L208.437 142.907L210.781 141.407L213.218 140L215.562 138.5L217.906 137.094L220.25 135.5L222.594 134.093L224.938 132.593V78.4003Z" fill="url(#paint4_linear_46_11406)"/>
<path d="M147.587 104.844V107.282V109.72V112.158V114.689V117.221V119.658V122.096V123.971L148.337 123.69L151.524 122.471L154.712 121.158L157.806 119.94L160.994 118.627L164.182 117.314L167.276 116.095L170.464 114.783L173.652 113.564L176.746 112.251L179.934 111.032L183.028 109.72V107.282V106.344V99.8751V51.6828L179.465 49.4325L175.808 47.3698L172.152 45.3071L168.589 43.0569L164.932 40.9942L161.275 38.9315L157.713 36.775L154.056 34.6186L150.493 32.4621L146.837 30.3994L143.18 28.2429L139.617 26.0865L136.054 24.0238L132.398 21.961L130.429 20.8359L128.741 21.7735L125.084 23.7425L121.428 25.6177L117.959 27.6804L114.302 29.6493L110.645 31.5245L106.989 33.5872L110.645 35.6499L114.302 37.7126L116.552 39.119L117.959 38.3689L121.428 36.4937L125.084 34.5248L128.741 32.6496L130.147 31.8995L132.398 33.2122L136.054 35.2749L139.617 37.3376L143.18 39.494L146.837 41.6505L150.493 43.7132L154.056 45.8697L157.713 48.0261L161.275 50.0889L164.932 52.1516L168.589 54.4018L172.152 56.4645L173.37 57.1208V99.8751H172.527H172.152H170.464H168.589H168.401H166.245H164.932H164.182H162.119H161.275H160.057H157.994H157.713H155.931H154.056H153.868H151.712H150.493H149.649H148.055H147.774" fill="url(#paint5_linear_46_11406)"/>
<path d="M147.587 123.971L183.028 109.72L147.587 99.875" fill="url(#paint6_linear_46_11406)"/>
<path d="M115.146 123.971V100.25L82.7051 109.907L115.146 123.877" fill="url(#paint7_linear_46_11406)"/>
</g>
<defs>
<linearGradient id="paint0_linear_46_11406" x1="77.2438" y1="100.091" x2="77.2438" y2="191.44" gradientUnits="userSpaceOnUse">
<stop stop-color="#F6E93D"/>
<stop offset="0.13" stop-color="#F8E330"/>
<stop offset="0.35" stop-color="#F7C730"/>
<stop offset="0.64" stop-color="#F59C2E"/>
<stop offset="0.98" stop-color="#EB5E2C"/>
<stop offset="1" stop-color="#EB5C2C"/>
</linearGradient>
<linearGradient id="paint1_linear_46_11406" x1="113.144" y1="153.264" x2="113.144" y2="229.162" gradientUnits="userSpaceOnUse">
<stop stop-color="#F6E93D"/>
<stop offset="0.13" stop-color="#F8E330"/>
<stop offset="0.35" stop-color="#F7C730"/>
<stop offset="0.64" stop-color="#F59C2E"/>
<stop offset="0.98" stop-color="#EB5E2C"/>
<stop offset="1" stop-color="#EB5C2C"/>
</linearGradient>
<linearGradient id="paint2_linear_46_11406" x1="155.458" y1="131.084" x2="155.458" y2="215.88" gradientUnits="userSpaceOnUse">
<stop stop-color="#F6E93D"/>
<stop offset="0.13" stop-color="#F8E330"/>
<stop offset="0.35" stop-color="#F7C730"/>
<stop offset="0.64" stop-color="#F59C2E"/>
<stop offset="0.98" stop-color="#EB5E2C"/>
<stop offset="1" stop-color="#EB5C2C"/>
</linearGradient>
<linearGradient id="paint3_linear_46_11406" x1="87.0135" y1="37.6453" x2="87.0135" y2="103.633" gradientUnits="userSpaceOnUse">
<stop stop-color="#F6E93D"/>
<stop offset="0.13" stop-color="#F8E330"/>
<stop offset="0.35" stop-color="#F7C730"/>
<stop offset="0.64" stop-color="#F59C2E"/>
<stop offset="0.98" stop-color="#EB5E2C"/>
<stop offset="1" stop-color="#EB5C2C"/>
</linearGradient>
<linearGradient id="paint4_linear_46_11406" x1="200.13" y1="60.0047" x2="200.13" y2="160.262" gradientUnits="userSpaceOnUse">
<stop stop-color="#F6E93D"/>
<stop offset="0.13" stop-color="#F8E330"/>
<stop offset="0.35" stop-color="#F7C730"/>
<stop offset="0.64" stop-color="#F59C2E"/>
<stop offset="0.98" stop-color="#EB5E2C"/>
<stop offset="1" stop-color="#EB5C2C"/>
</linearGradient>
<linearGradient id="paint5_linear_46_11406" x1="144.999" y1="20.8359" x2="144.999" y2="123.999" gradientUnits="userSpaceOnUse">
<stop stop-color="#F6E93D"/>
<stop offset="0.13" stop-color="#F8E330"/>
<stop offset="0.35" stop-color="#F7C730"/>
<stop offset="0.64" stop-color="#F59C2E"/>
<stop offset="0.98" stop-color="#EB5E2C"/>
<stop offset="1" stop-color="#EB5C2C"/>
</linearGradient>
<linearGradient id="paint6_linear_46_11406" x1="165.27" y1="99.9406" x2="165.27" y2="124.027" gradientUnits="userSpaceOnUse">
<stop stop-color="#F6E93D"/>
<stop offset="0.13" stop-color="#F8E330"/>
<stop offset="0.35" stop-color="#F7C730"/>
<stop offset="0.64" stop-color="#F59C2E"/>
<stop offset="0.98" stop-color="#EB5E2C"/>
<stop offset="1" stop-color="#EB5C2C"/>
</linearGradient>
<linearGradient id="paint7_linear_46_11406" x1="98.5343" y1="118.015" x2="106.185" y2="96.9941" gradientUnits="userSpaceOnUse">
<stop stop-color="#F6E93D"/>
<stop offset="0.13" stop-color="#F8E330"/>
<stop offset="0.35" stop-color="#F7C730"/>
<stop offset="0.64" stop-color="#F59C2E"/>
<stop offset="0.98" stop-color="#EB5E2C"/>
<stop offset="1" stop-color="#EB5C2C"/>
</linearGradient>
<clipPath id="clip0_46_11406">
<rect width="250" height="250" fill="white"/>
</clipPath>
</defs>
</svg>
